img/index/design-process-principles.svg

<svg width="241" height="262" viewBox="0 0 241 262" fill="none" xmlns="http://www.w3.org/2000/svg">
<path fill-rule="evenodd" clip-rule="evenodd" d="M116.174 8.03C134.059 7.63906 152.034 11.0209 166.907 20.9913C182.178 31.2291 190.773 47.6624 199.488 63.8814C210.24 83.8883 229.123 103.988 223.314 125.957C217.504 147.93 191.014 155.754 171.947 168.041C154.149 179.51 137.328 195.188 116.174 194.998C95.0918 194.809 76.6012 181.405 61.1228 167.045C47.0188 153.96 39.81 136.177 33.2494 118.064C26.4394 99.2633 15.8317 79.3556 22.5371 60.5167C29.2018 41.7918 49.721 32.8733 67.0236 23.1747C82.3606 14.5778 98.6096 8.41396 116.174 8.03Z" fill="#EAF3FA"/>
<g filter="url(#filter0_d_4075_24307)">
<path d="M55.4791 64.0867C55.4791 72.0556 55.4791 80.0245 55.4791 87.9935C55.4791 94.7713 59.3126 94.2869 65.0722 93.6683C69.0318 93.2431 72.5572 92.3402 76.5239 92.3402C82.0969 92.3402 81.9105 90.735 81.3205 84.7938C80.8801 80.3603 80.3012 76.2135 80.3012 71.6934C80.3012 68.0393 81.7093 66.6715 82.3997 63.5433C82.484 63.1615 58.6746 63 54.3999 63" stroke="black" stroke-width="2" stroke-linecap="round" stroke-linejoin="round"/>
</g>
<g filter="url(#filter1_d_4075_24307)">
<path d="M104.503 64.1642C103.34 73.0495 103.4 81.8697 103.4 90.8001C103.4 96.8869 105.993 98.8402 112.222 98.954C117.895 99.0575 123.579 98.954 129.254 98.954C135.527 98.954 133.175 91.9816 133.175 86.995C133.175 81.8428 134.86 75.567 134.278 70.6873C134.169 69.7791 131.694 68.5503 130.908 67.9693C128.8 66.4109 128.719 64.5325 127.11 62.5938C122.774 57.3693 123.65 61.585 117.491 61.9898C113.205 62.2715 108.805 61.9898 104.503 61.9898" stroke="black" stroke-width="2" stroke-linecap="round" stroke-linejoin="round"/>
</g>
<g filter="url(#filter2_d_4075_24307)">
<path d="M124.685 60C124.685 60.812 123.719 74.3877 125.344 74.7414C127.941 75.3065 133.177 75.081 134.4 72.6858" stroke="black" stroke-width="2" stroke-linecap="round" stroke-linejoin="round"/>
</g>
<path d="M79.7015 147.02C79.7015 136.908 76.3999 128.622 76.3999 118.18C85.0428 118.18 95.0061 116.957 102.813 120.891C105.289 122.139 106.114 121.069 106.114 124.28C106.114 126.966 106.476 129.122 106.97 131.737C107.726 135.735 113.777 151.457 107.765 151.457H94.0084C88.2042 151.457 79.7015 154.289 79.7015 147.02Z" stroke="black" stroke-width="2" stroke-linecap="round" stroke-linejoin="round"/>
<g filter="url(#filter3_d_4075_24307)">
<path d="M100.815 144.413C100.772 144.064 100.735 143.674 100.703 143.239C101.071 143.475 101.301 143.881 101.415 144.335C101.464 144.336 101.513 144.338 101.561 144.343C101.57 143.633 101.997 143.159 103.295 143.582C103.559 143.668 103.294 144.929 102.842 145.894C103.082 147.082 102.78 147.096 102.408 146.627C102.011 147.126 101.566 147.222 101.215 146.3C101.062 146.559 100.854 146.723 100.603 146.723C97.7844 146.723 99.2524 144.825 100.815 144.413Z" fill="#F9F9F9"/>
<path d="M100.603 141C100.858 152.629 104.008 143.814 103.295 143.582C99.1498 142.231 103.887 150.028 102.745 145.467C101.957 142.323 96.3116 146.723 100.603 146.723C102.03 146.723 102.074 141.417 98.3999 143.513" stroke="black" stroke-width="2" stroke-linecap="round" stroke-linejoin="round"/>
</g>
<g filter="url(#filter4_d_4075_24307)">
<path d="M124.461 123.248C124.461 133.003 124.005 143.905 125.579 153.315C126.279 157.5 143.229 155.543 146.812 155.543C153.804 155.543 151.282 149.622 151.282 143.541C151.282 138.107 152.399 132.971 152.399 127.703C152.399 121.795 152.569 123.045 147.06 123.248C139.551 123.526 131.978 123.248 124.461 123.248Z" stroke="black" stroke-width="2" stroke-linecap="round" stroke-linejoin="round"/>
</g>
<g filter="url(#filter5_d_4075_24307)">
<path d="M154.423 68.737C154.423 71.7174 151.688 103.695 155.161 103.777C161.569 103.929 167.535 103.861 173.796 104.845C181.08 105.989 181.57 100.653 182.345 94.2321C183.285 86.4484 182.851 77.0576 187.019 70.3697C189.582 66.2569 178.445 67.6871 176.318 67.6067C170.74 67.3957 161.79 64.0995 156.637 67.6067" stroke="black" stroke-width="2" stroke-linecap="round" stroke-linejoin="round"/>
</g>
<g filter="url(#filter6_d_4075_24307)">
<path d="M176.171 70C174.772 77.8334 174.632 78 181.4 78" stroke="black" stroke-width="2" stroke-linecap="round" stroke-linejoin="round"/>
</g>
<defs>
<filter id="filter0_d_4075_24307" x="37.3999" y="62" width="62.0004" height="65" filterUnits="userSpaceOnUse" color-interpolation-filters="sRGB">
<feFlood flood-opacity="0" result="BackgroundImageFix"/>
<feColorMatrix in="SourceAlpha" type="matrix" values="0 0 0 0 0 0 0 0 0 0 0 0 0 0 0 0 0 0 127 0" result="hardAlpha"/>
<feOffset dy="16"/>
<feGaussianBlur stdDeviation="8"/>
<feColorMatrix type="matrix" values="0 0 0 0 0 0 0 0 0 0 0 0 0 0 0 0 0 0 0.1 0"/>
<feBlend mode="normal" in2="BackgroundImageFix" result="effect1_dropShadow_4075_24307"/>
<feBlend mode="normal" in="SourceGraphic" in2="effect1_dropShadow_4075_24307" result="shape"/>
</filter>
<filter id="filter1_d_4075_24307" x="86.3999" y="59" width="64.9998" height="73" filterUnits="userSpaceOnUse" color-interpolation-filters="sRGB">
<feFlood flood-opacity="0" result="BackgroundImageFix"/>
<feColorMatrix in="SourceAlpha" type="matrix" values="0 0 0 0 0 0 0 0 0 0 0 0 0 0 0 0 0 0 127 0" result="hardAlpha"/>
<feOffset dy="16"/>
<feGaussianBlur stdDeviation="8"/>
<feColorMatrix type="matrix" values="0 0 0 0 0 0 0 0 0 0 0 0 0 0 0 0 0 0 0.1 0"/>
<feBlend mode="normal" in2="BackgroundImageFix" result="effect1_dropShadow_4075_24307"/>
<feBlend mode="normal" in="SourceGraphic" in2="effect1_dropShadow_4075_24307" result="shape"/>
</filter>
<filter id="filter2_d_4075_24307" x="107.4" y="59" width="44.0002" height="49" filterUnits="userSpaceOnUse" color-interpolation-filters="sRGB">
<feFlood flood-opacity="0" result="BackgroundImageFix"/>
<feColorMatrix in="SourceAlpha" type="matrix" values="0 0 0 0 0 0 0 0 0 0 0 0 0 0 0 0 0 0 127 0" result="hardAlpha"/>
<feOffset dy="16"/>
<feGaussianBlur stdDeviation="8"/>
<feColorMatrix type="matrix" values="0 0 0 0 0 0 0 0 0 0 0 0 0 0 0 0 0 0 0.1 0"/>
<feBlend mode="normal" in2="BackgroundImageFix" result="effect1_dropShadow_4075_24307"/>
<feBlend mode="normal" in="SourceGraphic" in2="effect1_dropShadow_4075_24307" result="shape"/>
</filter>
<filter id="filter3_d_4075_24307" x="81.3997" y="140" width="39.0002" height="40" filterUnits="userSpaceOnUse" color-interpolation-filters="sRGB">
<feFlood flood-opacity="0" result="BackgroundImageFix"/>
<feColorMatrix in="SourceAlpha" type="matrix" values="0 0 0 0 0 0 0 0 0 0 0 0 0 0 0 0 0 0 127 0" result="hardAlpha"/>
<feOffset dy="16"/>
<feGaussianBlur stdDeviation="8"/>
<feColorMatrix type="matrix" values="0 0 0 0 0 0 0 0 0 0 0 0 0 0 0 0 0 0 0.1 0"/>
<feBlend mode="normal" in2="BackgroundImageFix" result="effect1_dropShadow_4075_24307"/>
<feBlend mode="normal" in="SourceGraphic" in2="effect1_dropShadow_4075_24307" result="shape"/>
</filter>
<filter id="filter4_d_4075_24307" x="67.3995" y="115" width="142.001" height="147" filterUnits="userSpaceOnUse" color-interpolation-filters="sRGB">
<feFlood flood-opacity="0" result="BackgroundImageFix"/>
<feColorMatrix in="SourceAlpha" type="matrix" values="0 0 0 0 0 0 0 0 0 0 0 0 0 0 0 0 0 0 127 0" result="hardAlpha"/>
<feOffset dy="49"/>
<feGaussianBlur stdDeviation="28"/>
<feColorMatrix type="matrix" values="0 0 0 0 0 0 0 0 0 0 0 0 0 0 0 0 0 0 0.06 0"/>
<feBlend mode="normal" in2="BackgroundImageFix" result="effect1_dropShadow_4075_24307"/>
<feBlend mode="normal" in="SourceGraphic" in2="effect1_dropShadow_4075_24307" result="shape"/>
</filter>
<filter id="filter5_d_4075_24307" x="136.4" y="64.9995" width="68.0003" height="73.0005" filterUnits="userSpaceOnUse" color-interpolation-filters="sRGB">
<feFlood flood-opacity="0" result="BackgroundImageFix"/>
<feColorMatrix in="SourceAlpha" type="matrix" values="0 0 0 0 0 0 0 0 0 0 0 0 0 0 0 0 0 0 127 0" result="hardAlpha"/>
<feOffset dy="16"/>
<feGaussianBlur stdDeviation="8"/>
<feColorMatrix type="matrix" values="0 0 0 0 0 0 0 0 0 0 0 0 0 0 0 0 0 0 0.1 0"/>
<feBlend mode="normal" in2="BackgroundImageFix" result="effect1_dropShadow_4075_24307"/>
<feBlend mode="normal" in="SourceGraphic" in2="effect1_dropShadow_4075_24307" result="shape"/>
</filter>
<filter id="filter6_d_4075_24307" x="158.399" y="69" width="40.0005" height="42" filterUnits="userSpaceOnUse" color-interpolation-filters="sRGB">
<feFlood flood-opacity="0" result="BackgroundImageFix"/>
<feColorMatrix in="SourceAlpha" type="matrix" values="0 0 0 0 0 0 0 0 0 0 0 0 0 0 0 0 0 0 127 0" result="hardAlpha"/>
<feOffset dy="16"/>
<feGaussianBlur stdDeviation="8"/>
<feColorMatrix type="matrix" values="0 0 0 0 0 0 0 0 0 0 0 0 0 0 0 0 0 0 0.1 0"/>
<feBlend mode="normal" in2="BackgroundImageFix" result="effect1_dropShadow_4075_24307"/>
<feBlend mode="normal" in="SourceGraphic" in2="effect1_dropShadow_4075_24307" result="shape"/>
</filter>
</defs>
</svg>

<?xml version="1.0" encoding="UTF-8"?>
<svg id="Layer_1" xmlns="http://www.w3.org/2000/svg" version="1.1" viewBox="0 0 241 199.98">
  <!-- Generator: Adobe Illustrator 29.5.1, SVG Export Plug-In . SVG Version: 2.1.0 Build 141)  -->
  <defs>
    <style>
      .st0 {
        fill: none;
        stroke: #000;
        stroke-linecap: round;
        stroke-linejoin: round;
        stroke-width: 2px;
      }

      .st1 {
        fill: #f9f9f9;
      }

      .st2 {
        fill: #eaf3fa;
        fill-rule: evenodd;
      }
    </style>
  </defs>
  <path class="st2" d="M116.17,8.03c17.89-.39,35.86,2.99,50.73,12.96,15.27,10.24,23.87,26.67,32.58,42.89,10.75,20.01,29.63,40.11,23.83,62.08-5.81,21.97-32.3,29.8-51.37,42.08-17.8,11.47-34.62,27.15-55.77,26.96-21.08-.19-39.57-13.59-55.05-27.95-14.1-13.08-21.31-30.87-27.87-48.98-6.81-18.8-17.42-38.71-10.71-57.55,6.66-18.72,27.18-27.64,44.49-37.34,15.34-8.6,31.59-14.76,49.15-15.14Z"/>
  <path class="st0" d="M55.48,64.09v23.91c0,6.78,3.83,6.29,9.59,5.67,3.96-.43,7.49-1.33,11.45-1.33,5.57,0,5.39-1.61,4.8-7.55-.44-4.43-1.02-8.58-1.02-13.1,0-3.65,1.41-5.02,2.1-8.15.08-.38-23.73-.54-28-.54"/>
  <path class="st0" d="M104.5,64.16c-1.16,8.89-1.1,17.71-1.1,26.64,0,6.09,2.59,8.04,8.82,8.15,5.67.1,11.36,0,17.03,0,6.27,0,3.92-6.97,3.92-11.96s1.68-11.43,1.1-16.31c-.11-.91-2.58-2.14-3.37-2.72-2.11-1.56-2.19-3.44-3.8-5.38-4.34-5.22-3.46-1.01-9.62-.6-4.29.28-8.69,0-12.99,0"/>
  <path class="st0" d="M124.68,60c0,.81-.97,14.39.66,14.74,2.6.57,7.83.34,9.06-2.06"/>
  <path class="st0" d="M79.7,147.02c0-10.11-3.3-18.4-3.3-28.84,8.64,0,18.61-1.22,26.41,2.71,2.48,1.25,3.3.18,3.3,3.39,0,2.69.36,4.84.86,7.46.76,4,6.81,19.72.79,19.72h-13.76c-5.8,0-14.31,2.83-14.31-4.44Z"/>
  <g>
    <path class="st1" d="M100.82,144.41c-.04-.35-.08-.74-.11-1.17.37.24.6.64.71,1.1.05,0,.1,0,.15,0,0-.71.44-1.18,1.73-.76.26.09,0,1.35-.45,2.31.24,1.19-.06,1.2-.43.73-.4.5-.84.6-1.19-.33-.15.26-.36.42-.61.42-2.82,0-1.35-1.9.21-2.31Z"/>
    <path class="st0" d="M100.6,141c.26,11.63,3.41,2.81,2.69,2.58-4.15-1.35.59,6.45-.55,1.88-.79-3.14-6.43,1.26-2.14,1.26,1.43,0,1.47-5.31-2.2-3.21"/>
  </g>
  <path class="st0" d="M124.46,123.25c0,9.76-.46,20.66,1.12,30.07.7,4.18,17.65,2.23,21.23,2.23,6.99,0,4.47-5.92,4.47-12,0-5.43,1.12-10.57,1.12-15.84,0-5.91.17-4.66-5.34-4.46-7.51.28-15.08,0-22.6,0Z"/>
  <path class="st0" d="M154.42,68.74c0,2.98-2.74,34.96.74,35.04,6.41.15,12.37.08,18.64,1.07,7.28,1.14,7.77-4.19,8.55-10.61.94-7.78.51-17.17,4.67-23.86,2.56-4.11-8.57-2.68-10.7-2.76-5.58-.21-14.53-3.51-19.68,0"/>
  <path class="st0" d="M176.17,70c-1.4,7.83-1.54,8,5.23,8"/>
</svg>
